Papirus/64x64/apps/archipelago.svg

<svg xmlns="http://www.w3.org/2000/svg" height="64" width="64" version="1.1">
 <circle cx="32" cy="33" r="28" style="opacity:.2"/>
 <circle cx="32" cy="32" r="28" style="fill:#e4e4e4"/>
 <path d="m32 4a28 28 0 0 0 -28 28 28 28 0 0 0 0.0215 0.586 28 28 0 0 1 27.9785 -27.586 28 28 0 0 1 27.979 27.414 28 28 0 0 0 0.021 -0.414 28 28 0 0 0 -28 -28z" style="opacity:.2;fill:#ffffff"/>
 <path style="opacity:.2" d="m25.948464 15.000554c-0.503275 0.01941-0.963216 0.290109-1.224528 0.720681l-16.498902 26.999169c-0.606514 0.997931 0.109515 2.275652 1.277259 2.279228h44.997007c1.084245 0.0025 1.812952-1.110734 1.37686-2.103452l-10.499302-23.999262c-0.248936-0.568043-0.821756-0.924324-1.441308-0.896457-0.575568 0.02556-1.08564 0.378526-1.312413 0.908176l-5.929295 13.745672-9.380234-16.880342c-0.273205-0.494215-0.8008-0.79312-1.365144-0.773413zm0.05718 4.499862 4.108562 7.499769h-4.113008l-2.9998 2.999907-2.167824-2.167901zm17.994356 2.499584 3.497816 9.248102-3.497816 1.751898-3.450943-1.722604zm-24.496416 8.000092h0.498013l2.999801 2.999908 2.9998-2.999908h5.782817l3.691163 6.638469c0.04062 0.09891 0.09166 0.193194 0.152329 0.281242l2.824037 5.07992h-26.277551zm29.072285 3.70887 3.626712 8.290761h-10.317674l-3.357199-6.034971 0.960876-2.220633 4.511416 2.255788z"/>
 <path style="fill:#3f3f3f" d="m25.947066 14.000462c-0.503275 0.01941-0.963216 0.290109-1.224528 0.720681l-16.498902 26.999169c-0.606514 0.997931 0.109515 2.275652 1.277259 2.279228h44.997007c1.084245 0.0025 1.812952-1.110734 1.37686-2.103452l-10.499302-23.999262c-0.248936-0.568043-0.821756-0.924324-1.441308-0.896457-0.575568 0.02556-1.08564 0.378526-1.312413 0.908176l-5.929295 13.745672-9.380234-16.880342c-0.273205-0.494215-0.8008-0.79312-1.365144-0.773413zm0.05718 4.499862 4.108562 7.499769h-4.113008l-2.9998 2.999907-2.167824-2.167901zm17.995754 2.499676l3.496418 9.24801-3.497816 1.751898-3.450943-1.722604zm-24.497814 8h0.498013l2.999801 2.999908 2.9998-2.999908h5.782817l3.691163 6.638469c0.04062 0.09891 0.09166 0.193194 0.152329 0.281242l2.824037 5.07992h-26.277551zm29.072285 3.70887 3.626712 8.290761h-10.317674l-3.357199-6.034971 0.960876-2.220633 4.511416 2.255788z"/>
</svg>

<?xml version="1.0" encoding="UTF-8" standalone="no"?>
<svg
   id="_图层_1"
   version="1.1"
   viewBox="0 0 64 64" width="64" height="64"
   sodipodi:docname="archipelago.svg"
   xml:space="preserve"
   inkscape:version="1.4 (e7c3feb100, 2024-10-09)"
   xmlns:inkscape="http://www.inkscape.org/namespaces/inkscape"
   xmlns:sodipodi="http://sodipodi.sourceforge.net/DTD/sodipodi-0.dtd"
   xmlns="http://www.w3.org/2000/svg"
   xmlns:svg="http://www.w3.org/2000/svg"><sodipodi:namedview
     id="namedview26"
     pagecolor="#505050"
     bordercolor="#eeeeee"
     borderopacity="1"
     inkscape:showpageshadow="0"
     inkscape:pageopacity="0"
     inkscape:pagecheckerboard="0"
     inkscape:deskcolor="#505050"
     inkscape:zoom="10.6875"
     inkscape:cx="44.25731"
     inkscape:cy="24.51462"
     inkscape:window-width="1920"
     inkscape:window-height="939"
     inkscape:window-x="0"
     inkscape:window-y="34"
     inkscape:window-maximized="1"
     inkscape:current-layer="_图层_1" /><!-- Generator: Adobe Illustrator 29.0.1, SVG Export Plug-In . SVG Version: 2.1.0 Build 192)  --><defs
     id="defs6"><inkscape:path-effect
       effect="fillet_chamfer"
       id="path-effect26"
       is_visible="true"
       lpeversion="1"
       nodesatellites_param="F,0,0,1,0,0,0,1 @ F,0,0,1,0,0,0,1 @ F,0,0,1,0,0,0,1 @ F,0,0,1,0,0,0,1 @ F,0,0,1,0,0,0,1 @ F,0,0,1,0,0,0,1"
       radius="0"
       unit="px"
       method="auto"
       mode="F"
       chamfer_steps="1"
       flexible="false"
       use_knot_distance="true"
       apply_no_radius="true"
       apply_with_radius="true"
       only_selected="false"
       hide_knots="false" /><style
       id="style1">
      .st0 {
        fill-opacity: .5;
      }

      .st0, .st1, .st2, .st3, .st4, .st5, .st6, .st7 {
        fill: #fff;
      }

      .st8 {
        fill: #133c9a;
      }

      .st2, .st9 {
        display: none;
      }

      .st3 {
        fill-opacity: .2;
      }

      .st4 {
        fill-opacity: .9;
      }

      .st10 {
        fill: #3370ff;
      }

      .st11 {
        fill: url(#_未命名的渐变_3);
      }

      .st12 {
        fill: url(#_未命名的渐变);
      }

      .st5 {
        fill-opacity: .3;
      }

      .st6 {
        fill-opacity: 0;
      }

      .st7 {
        fill-opacity: .7;
      }

      .st13 {
        fill: #00d6b9;
      }

      .st14 {
        fill: url(#_未命名的渐变_2);
      }
    </style><radialGradient
       id="_未命名的渐变"
       data-name="未命名的渐变"
       cx="123.9"
       cy="-40.2"
       fx="123.9"
       fy="-40.2"
       r="59.4"
       gradientTransform="translate(-26.8 25.5) scale(.6 -.7)"
       gradientUnits="userSpaceOnUse"><stop
         offset="0"
         stop-color="#db202e"
         id="stop1" /><stop
         offset="1"
         stop-color="#e01b24"
         id="stop2" /></radialGradient><radialGradient
       id="_未命名的渐变_2"
       data-name="未命名的渐变 2"
       cx="67.6"
       cy="26.8"
       fx="67.6"
       fy="26.8"
       r="105.2"
       gradientTransform="translate(-26.6 25.3) scale(.6 -.7)"
       gradientUnits="userSpaceOnUse"><stop
         offset="0"
         stop-color="#ffb648"
         id="stop3" /><stop
         offset="1"
         stop-color="#ff7800"
         stop-opacity="0"
         id="stop4" /></radialGradient><radialGradient
       id="_未命名的渐变_3"
       data-name="未命名的渐变 3"
       cx="61.7"
       cy="18.6"
       fx="61.7"
       fy="18.6"
       r="68"
       gradientTransform="translate(-26.8 25.8) scale(.6 -.7)"
       gradientUnits="userSpaceOnUse"><stop
         offset="0"
         stop-color="#c64600"
         id="stop5" /><stop
         offset="1"
         stop-color="#a51d2d"
         id="stop6" /></radialGradient></defs><path
     class="st1"
     d="M 47.5,64.1 H 13.8 C 6.2,64.1 0,57.8 0,50.3 V 13.7 C 0,6.2 6.2,0 13.7,0 H 50.3 C 57.8,0 64,6.2 64,13.7 V 50.3 C 64,57.8 57.8,64 50.3,64 h -2.9 0.1 z"
     id="path6"
     style="display:inline;fill:#e4e4e4;fill-opacity:1" /><g
     id="g26"
     transform="matrix(1.1487051,0,0,1.1395301,-4.7819549,-4.4265415)"><path
       style="opacity:0.2"
       d="m 25.948464,15.000554 c -0.503275,0.01941 -0.963216,0.290109 -1.224528,0.720681 L 8.225034,42.720404 c -0.606514,0.997931 0.109515,2.275652 1.277259,2.279228 H 54.4993 c 1.084245,0.0025 1.812952,-1.110734 1.37686,-2.103452 L 45.376858,18.896918 c -0.248936,-0.568043 -0.821756,-0.924324 -1.441308,-0.896457 -0.575568,0.02556 -1.08564,0.378526 -1.312413,0.908176 L 36.693842,32.654309 27.313608,15.773967 c -0.273205,-0.494215 -0.8008,-0.79312 -1.365144,-0.773413 z m 0.05718,4.499862 4.108562,7.499769 h -4.113008 l -2.9998,2.999907 -2.167824,-2.167901 z M 44,22 47.497816,31.248102 44,33 40.549057,31.277396 Z m -24.496416,8.000092 h 0.498013 L 23.001398,33 l 2.9998,-2.999908 h 5.782817 l 3.691163,6.638469 c 0.04062,0.09891 0.09166,0.193194 0.152329,0.281242 l 2.824037,5.07992 H 12.173993 Z m 29.072285,3.70887 3.626712,8.290761 H 41.884907 L 38.527708,35.964752 39.488584,33.744119 44,35.999907 Z"
       id="path3" /><path
       style="fill:#3f3f3f"
       d="m 25.947066,14.000462 c -0.503275,0.01941 -0.963216,0.290109 -1.224528,0.720681 L 8.223636,41.720312 c -0.606514,0.997931 0.109515,2.275652 1.277259,2.279228 h 44.997007 c 1.084245,0.0025 1.812952,-1.110734 1.37686,-2.103452 L 45.37546,17.896826 c -0.248936,-0.568043 -0.821756,-0.924324 -1.441308,-0.896457 -0.575568,0.02556 -1.08564,0.378526 -1.312413,0.908176 L 36.692444,31.654217 27.31221,14.773875 c -0.273205,-0.494215 -0.8008,-0.79312 -1.365144,-0.773413 z m 0.05718,4.499862 4.108562,7.499769 H 25.9998 L 23,29 20.832176,26.832099 Z M 44,21 l 3.496418,9.24801 -3.497816,1.751898 -3.450943,-1.722604 z m -24.497814,8 h 0.498013 L 23,31.999908 25.9998,29 h 5.782817 l 3.691163,6.638469 c 0.04062,0.09891 0.09166,0.193194 0.152329,0.281242 l 2.824037,5.07992 H 12.172595 Z m 29.072285,3.70887 3.626712,8.290761 H 41.883509 l -3.357199,-6.034971 0.960876,-2.220633 4.511416,2.255788 z"
       id="path4" /></g></svg>
